static/fa/svgs/solid/mask-face.svg

<svg xmlns="http://www.w3.org/2000/svg" viewBox="0 0 640 512"><!--! Font Awesome Free 6.1.1 by @fontawesome - https://fontawesome.com License - https://fontawesome.com/license/free (Icons: CC BY 4.0, Fonts: SIL OFL 1.1, Code: MIT License) Copyright 2022 Fonticons, Inc.--><path d="m396.4 87.12 37.1 24.78a96.2 96.2 0 0 0 53.3 16.1H584c30.9 0 56 25.1 56 56v85c0 55.1-37.5 103.1-90.9 116.5l-108 27C406.2 434.1 364.6 448 320 448c-44.6 0-86.2-13.9-121.1-35.5l-108-27C37.48 372.1 0 324.1 0 269v-85c0-30.9 25.07-56 56-56h97.2c19 0 37.5-5.6 53.3-16.1l37.1-24.78C266.2 72.05 292.8 64 320 64c27.2 0 53.8 8.05 76.4 23.12zM132.3 346.3C109.4 311.2 96 269.1 96 224v-48H56c-4.42 0-8 3.6-8 8v85c0 33.1 22.49 61.9 54.5 69.9l29.8 7.4zM592 269v-85c0-4.4-3.6-8-8-8h-40v48c0 45.1-13.4 87.2-36.3 122.3l29.8-7.4c32-8 54.5-36.8 54.5-69.9zm-384-45h224c8.8 0 16-7.2 16-16s-7.2-16-16-16H208c-8.8 0-16 7.2-16 16s7.2 16 16 16zm0 32c-8.8 0-16 7.2-16 16s7.2 16 16 16h224c8.8 0 16-7.2 16-16s-7.2-16-16-16H208zm32 96h160c8.8 0 16-7.2 16-16s-7.2-16-16-16H240c-8.8 0-16 7.2-16 16s7.2 16 16 16z"/></svg>

<svg xmlns="http://www.w3.org/2000/svg" viewBox="0 0 640 512"><!--! Font Awesome Free 6.1.1 by @fontawesome - https://fontawesome.com License - https://fontawesome.com/license/free (Icons: CC BY 4.0, Fonts: SIL OFL 1.1, Code: MIT License) Copyright 2022 Fonticons, Inc. --><path d="M396.4 87.12L433.5 111.9C449.3 122.4 467.8 128 486.8 128H584C614.9 128 640 153.1 640 184V269C640 324.1 602.5 372.1 549.1 385.5L441.1 412.5C406.2 434.1 364.6 448 320 448C275.4 448 233.8 434.1 198.9 412.5L90.9 385.5C37.48 372.1 0 324.1 0 269V184C0 153.1 25.07 128 56 128H153.2C172.2 128 190.7 122.4 206.5 111.9L243.6 87.12C266.2 72.05 292.8 64 320 64C347.2 64 373.8 72.05 396.4 87.12zM132.3 346.3C109.4 311.2 96 269.1 96 224V176H56C51.58 176 48 179.6 48 184V269C48 302.1 70.49 330.9 102.5 338.9L132.3 346.3zM592 269V184C592 179.6 588.4 176 584 176H544V224C544 269.1 530.6 311.2 507.7 346.3L537.5 338.9C569.5 330.9 592 302.1 592 269H592zM208 224H432C440.8 224 448 216.8 448 208C448 199.2 440.8 192 432 192H208C199.2 192 192 199.2 192 208C192 216.8 199.2 224 208 224zM208 256C199.2 256 192 263.2 192 272C192 280.8 199.2 288 208 288H432C440.8 288 448 280.8 448 272C448 263.2 440.8 256 432 256H208zM240 352H400C408.8 352 416 344.8 416 336C416 327.2 408.8 320 400 320H240C231.2 320 224 327.2 224 336C224 344.8 231.2 352 240 352z"/></svg>
